build/img/sprites/UserSwitch.svg

<svg width="54" height="54" viewBox="0 0 54 54" fill="none" xmlns="http://www.w3.org/2000/svg">
<g clip-path="url(#clip0_429_851)">
<path d="M53.5064 28.194L48.4439 33.2565C48.2871 33.4134 48.101 33.5379 47.8962 33.6228C47.6913 33.7077 47.4717 33.7514 47.25 33.7514C47.0282 33.7514 46.8086 33.7077 46.6038 33.6228C46.3989 33.5379 46.2128 33.4134 46.0561 33.2565L40.9936 28.194C40.6769 27.8774 40.499 27.4479 40.499 27.0001C40.499 26.5523 40.6769 26.1228 40.9936 25.8062C41.3102 25.4895 41.7397 25.3117 42.1875 25.3117C42.6353 25.3117 43.0647 25.4895 43.3814 25.8062L45.5625 27.9894V27.0001C45.5644 23.0696 44.3186 19.2398 42.0046 16.0627C39.6906 12.8855 36.4278 10.5249 32.6862 9.32082C28.9446 8.11678 24.9174 8.13151 21.1847 9.36287C17.452 10.5942 14.2066 12.9787 11.9158 16.1727C11.6546 16.5363 11.2595 16.7813 10.8177 16.8537C10.3758 16.9261 9.92329 16.8199 9.55965 16.5587C9.19601 16.2974 8.95105 15.9024 8.87866 15.4605C8.80627 15.0187 8.91237 14.5662 9.17363 14.2025C11.881 10.4278 15.7167 7.60997 20.1281 6.15486C24.5395 4.69976 29.299 4.68253 33.7208 6.10566C38.1427 7.52878 41.9986 10.3188 44.7333 14.0738C47.4679 17.8288 48.94 22.3549 48.9375 27.0001V27.9894L51.1186 25.8062C51.4352 25.4895 51.8647 25.3117 52.3125 25.3117C52.7603 25.3117 53.1897 25.4895 53.5064 25.8062C53.823 26.1228 54.0009 26.5523 54.0009 27.0001C54.0009 27.4479 53.823 27.8774 53.5064 28.194ZM44.82 39.7956C42.1118 43.5674 38.2767 46.3827 33.8667 47.8361C29.4567 49.2895 24.6992 49.3062 20.2791 47.8836C15.8591 46.4611 12.0044 43.6727 9.2699 39.9199C6.53544 36.1671 5.06228 31.6434 5.06246 27.0001V26.0108L2.88137 28.194C2.56472 28.5106 2.13526 28.6885 1.68746 28.6885C1.23966 28.6885 0.810199 28.5106 0.493556 28.194C0.176912 27.8774 -0.000976562 27.4479 -0.000976562 27.0001C-0.000976563 26.5523 0.176912 26.1228 0.493556 25.8062L5.55606 20.7437C5.71278 20.5868 5.89889 20.4623 6.10375 20.3774C6.30861 20.2925 6.5282 20.2488 6.74996 20.2488C6.97173 20.2488 7.19131 20.2925 7.39617 20.3774C7.60103 20.4623 7.78714 20.5868 7.94387 20.7437L13.0064 25.8062C13.323 26.1228 13.5009 26.5523 13.5009 27.0001C13.5009 27.4479 13.323 27.8774 13.0064 28.194C12.6897 28.5106 12.2603 28.6885 11.8125 28.6885C11.3647 28.6885 10.9352 28.5106 10.6186 28.194L8.43746 26.0108V27.0001C8.43346 31.5441 10.1035 35.9303 13.1287 39.321C15.0108 36.5937 17.6572 34.4838 20.7351 33.2565C19.0818 31.9543 17.8753 30.1692 17.2835 28.1495C16.6917 26.1298 16.744 23.9759 17.4331 21.9873C18.1222 19.9987 19.4138 18.2742 21.1284 17.0537C22.843 15.8333 24.8953 15.1774 27 15.1774C29.1046 15.1774 31.1569 15.8333 32.8715 17.0537C34.5861 18.2742 35.8778 19.9987 36.5668 21.9873C37.256 23.9759 37.3082 26.1298 36.7164 28.1495C36.1246 30.1692 34.9182 31.9543 33.2648 33.2565C36.3456 34.484 38.9938 36.5964 40.8754 39.3273C41.3021 38.8481 41.7041 38.3475 42.0799 37.8275C42.3411 37.4639 42.7362 37.2189 43.178 37.1465C43.6199 37.0741 44.0724 37.1802 44.4361 37.4415C44.7997 37.7028 45.0447 38.0978 45.117 38.5396C45.1894 38.9815 45.0833 39.434 44.8221 39.7977L44.82 39.7956ZM27 32.0626C28.335 32.0626 29.64 31.6667 30.7501 30.925C31.8601 30.1833 32.7253 29.1291 33.2362 27.8957C33.747 26.6623 33.8807 25.3051 33.6203 23.9957C33.3598 22.6864 32.7169 21.4836 31.7729 20.5396C30.8289 19.5956 29.6262 18.9527 28.3168 18.6923C27.0075 18.4318 25.6502 18.5655 24.4168 19.0764C23.1834 19.5873 22.1292 20.4525 21.3875 21.5625C20.6458 22.6725 20.25 23.9776 20.25 25.3126C20.25 27.1028 20.9611 28.8197 22.227 30.0856C23.4929 31.3514 25.2098 32.0626 27 32.0626ZM27 45.5626C31.1184 45.5572 35.1187 44.1855 38.3737 41.6624C37.1529 39.7531 35.4712 38.1819 33.4835 37.0936C31.4958 36.0052 29.2661 35.4348 27 35.4348C24.7338 35.4348 22.5041 36.0052 20.5164 37.0936C18.5287 38.1819 16.847 39.7531 15.6262 41.6624C18.8764 44.1945 22.8798 45.5674 27 45.5626Z" fill="#78213A"/>
</g>
<defs>
<clipPath id="clip0_429_851">
<rect width="54" height="54" fill="white"/>
</clipPath>
</defs>
</svg>

<svg width="54" height="54" viewBox="0 0 54 54" fill="none" xmlns="http://www.w3.org/2000/svg"><g clip-path="url(#clip0_429_851)"><path d="M53.506 28.194l-5.062 5.063a1.689 1.689 0 01-2.388 0l-5.062-5.063a1.688 1.688 0 112.387-2.388l2.181 2.183V27a18.563 18.563 0 00-33.646-10.827 1.688 1.688 0 01-2.742-1.97A21.938 21.938 0 0148.937 27v.99l2.182-2.184a1.688 1.688 0 112.387 2.388zM44.82 39.796A21.938 21.938 0 015.062 27v-.99l-2.18 2.184a1.689 1.689 0 01-2.388-2.388l5.062-5.062a1.687 1.687 0 012.388 0l5.062 5.062a1.689 1.689 0 01-2.387 2.388l-2.182-2.183V27a18.482 18.482 0 004.692 12.32 16.804 16.804 0 017.606-6.064 10.125 10.125 0 1112.53 0 16.788 16.788 0 017.61 6.07c.427-.479.83-.98 1.205-1.5a1.688 1.688 0 012.742 1.97l-.002-.001zM27 32.063a6.75 6.75 0 100-13.5 6.75 6.75 0 000 13.5zm0 13.5a18.605 18.605 0 0011.374-3.9 13.5 13.5 0 00-22.748 0A18.472 18.472 0 0027 45.562z" fill="#78213A"/></g><defs><clipPath id="clip0_429_851"><path fill="#fff" d="M0 0h54v54H0z"/></clipPath></defs></svg>
